X: 21681
Q: "With spirit."
M: 6/8
L: 1/8
K: G
g |\
dBG GFG | ABA ABd |\
(ef/g/)e dBd | gGG Gge |\
dBG GFG | ABA ABd |\
(ef/g/)e dBd |
gGG G2 |]\
e |\
def gfg | efg a2f |\
gab efg | dBG AGE |\


